svg/mem.svg

<?xml version="1.0" encoding="UTF-8"?>
<svg xmlns="http://www.w3.org/2000/svg" xmlns:xlink="http://www.w3.org/1999/xlink" width="32" height="32" viewBox="0 0 32 32">
<path fill-rule="nonzero" fill="rgb(0%, 0%, 0%)" fill-opacity="1" d="M 5.761719 0 C 5.054688 0 4.480469 0.574219 4.480469 1.28125 L 4.480469 30.71875 C 4.480469 31.425781 5.054688 32 5.761719 32 L 22.398438 32 C 22.566406 32 22.730469 31.933594 22.851562 31.816406 C 22.972656 31.695312 23.039062 31.53125 23.039062 31.359375 L 23.039062 0.640625 C 23.039062 0.289062 22.753906 0 22.398438 0 Z M 23.679688 1.28125 L 23.679688 3.839844 L 24.960938 3.839844 L 24.960938 5.121094 L 23.679688 5.121094 L 23.679688 6.398438 L 24.960938 6.398438 L 24.960938 7.679688 L 23.679688 7.679688 L 23.679688 8.960938 L 24.960938 8.960938 L 24.960938 10.238281 L 23.679688 10.238281 L 23.679688 11.519531 L 24.960938 11.519531 L 24.960938 12.800781 L 23.679688 12.800781 L 23.679688 19.199219 L 24.960938 19.199219 L 24.960938 20.480469 L 23.679688 20.480469 L 23.679688 21.761719 L 24.960938 21.761719 L 24.960938 23.039062 L 23.679688 23.039062 L 23.679688 24.320312 L 24.960938 24.320312 L 24.960938 25.601562 L 23.679688 25.601562 L 23.679688 26.878906 L 24.960938 26.878906 L 24.960938 28.160156 L 23.679688 28.160156 L 23.679688 30.71875 L 26.238281 30.71875 C 26.949219 30.71875 27.519531 30.148438 27.519531 29.441406 L 27.519531 17.28125 C 27.519531 17.109375 27.453125 16.949219 27.332031 16.828125 C 27.210938 16.707031 27.046875 16.640625 26.878906 16.640625 L 25.601562 16.640625 C 25.429688 16.640625 25.269531 16.574219 25.148438 16.453125 C 25.027344 16.332031 24.960938 16.171875 24.960938 16 C 24.960938 15.832031 25.027344 15.667969 25.148438 15.546875 C 25.265625 15.425781 25.429688 15.359375 25.601562 15.359375 L 26.878906 15.359375 C 27.046875 15.359375 27.210938 15.292969 27.332031 15.171875 C 27.453125 15.050781 27.519531 14.890625 27.519531 14.71875 L 27.519531 2.558594 C 27.519531 1.855469 26.949219 1.28125 26.238281 1.28125 Z M 9.601562 3.199219 L 17.921875 3.199219 L 17.921875 7.679688 L 9.601562 7.679688 Z M 9.601562 10.242188 L 17.921875 10.242188 L 17.921875 14.71875 L 9.601562 14.71875 Z M 9.601562 17.28125 L 17.921875 17.28125 L 17.921875 21.761719 L 9.601562 21.761719 Z M 9.601562 24.320312 L 17.921875 24.320312 L 17.921875 28.800781 L 9.601562 28.800781 Z M 9.601562 24.320312 "/>
</svg>

<svg role="img" viewBox="0 0 32 32" xmlns="http://www.w3.org/2000/svg"><path d="M5.762 0C5.055 0 4.48.574 4.48 1.281V30.72c0 .707.575 1.281 1.282 1.281h16.636a.66.66 0 0 0 .454-.184.64.64 0 0 0 .187-.457V.641A.64.64 0 0 0 22.4 0ZM23.68 1.281V3.84h1.28v1.28h-1.28v1.277h1.28V7.68h-1.28v1.28h1.28v1.278h-1.28v1.282h1.28v1.28h-1.28v6.4h1.28v1.28h-1.28v1.282h1.28v1.277h-1.28v1.281h1.28v1.282h-1.28v1.277h1.28v1.281h-1.28v2.559h2.558c.711 0 1.282-.57 1.282-1.278v-12.16a.64.64 0 0 0-.64-.64H25.6a.64.64 0 0 1-.454-.188.642.642 0 0 1 .453-1.094h1.278a.64.64 0 0 0 .64-.64V2.559c0-.704-.57-1.278-1.28-1.278ZM9.602 3.2h8.32v4.48h-8.32Zm0 7.043h8.32v4.477h-8.32Zm0 7.04h8.32v4.48h-8.32Zm0 7.038h8.32v4.48h-8.32Zm0 0" fill="rgb(0%, 0%, 0%)"/></svg>
